build/img/logo.svg

<svg width="167" height="34" viewBox="0 0 167 34" fill="none" xmlns="http://www.w3.org/2000/svg">
<path d="M61.4189 26.4619V2.92509H70.6694C73.0005 2.92509 74.6959 3.4658 75.7555 4.54722C76.8363 5.60744 77.3767 7.12354 77.3767 9.09555C77.3767 10.0285 77.239 10.8555 76.9635 11.5765C76.7092 12.2762 76.3383 12.8593 75.8509 13.3258C75.3635 13.7711 74.7807 14.0786 74.1025 14.2482C74.6111 14.3754 75.0985 14.5769 75.5648 14.8525C76.0522 15.1282 76.4866 15.4992 76.8681 15.9657C77.2708 16.4322 77.578 17.0048 77.79 17.6833C78.0231 18.3406 78.1396 19.104 78.1396 19.9734C78.1396 21.5637 77.8641 22.8359 77.3131 23.7901C76.7833 24.7443 75.9886 25.4335 74.929 25.8576C73.8906 26.2604 72.6085 26.4619 71.0826 26.4619H61.4189ZM66.1236 22.2316H70.9555C71.5065 22.2316 71.9833 22.1256 72.3859 21.9136C72.7886 21.7015 73.0959 21.3728 73.3078 20.9276C73.5409 20.4823 73.6575 19.8885 73.6575 19.1464C73.6575 18.5315 73.5409 18.012 73.3078 17.5879C73.0747 17.1638 72.7568 16.8351 72.3542 16.6019C71.9515 16.3686 71.4853 16.252 70.9555 16.252H66.1236V22.2316ZM66.1236 12.6261H70.7012C71.3793 12.6261 71.9091 12.3822 72.2906 11.8945C72.6932 11.3856 72.8946 10.7283 72.8946 9.92251C72.9157 8.8835 72.7038 8.16256 72.2588 7.75968C71.8138 7.35679 71.2733 7.15535 70.6376 7.15535H66.1236V12.6261Z" fill="#131313"/>
<path d="M88.4376 26.6209C87.0389 26.6209 85.8415 26.4831 84.8455 26.2074C83.8495 25.9106 83.0336 25.4229 82.3978 24.7443C81.7832 24.0658 81.3276 23.1646 81.0309 22.0408C80.7554 20.917 80.6176 19.5281 80.6176 17.8741C80.6176 16.1354 80.7554 14.7041 81.0309 13.5803C81.3276 12.4352 81.7832 11.5446 82.3978 10.9085C83.0336 10.2512 83.8495 9.79529 84.8455 9.54084C85.8627 9.26518 87.0601 9.12735 88.4376 9.12735C89.8575 9.12735 91.0654 9.26518 92.0615 9.54084C93.0575 9.81649 93.8628 10.283 94.4774 10.9403C95.1132 11.5765 95.5688 12.467 95.8443 13.6121C96.141 14.7359 96.2893 16.1566 96.2893 17.8741C96.2893 19.5705 96.1516 20.9912 95.8761 22.1362C95.6006 23.26 95.1555 24.1506 94.541 24.8079C93.9264 25.4653 93.1105 25.9318 92.0933 26.2074C91.0972 26.4831 89.8787 26.6209 88.4376 26.6209ZM88.4376 22.8677C89.0098 22.8677 89.4866 22.8147 89.8681 22.7087C90.2707 22.6027 90.5886 22.3907 90.8217 22.0726C91.076 21.7333 91.2668 21.2244 91.3939 20.5459C91.5211 19.8673 91.5846 18.9768 91.5846 17.8741C91.5846 16.7503 91.5211 15.8597 91.3939 15.2024C91.2668 14.5239 91.076 14.0255 90.8217 13.7075C90.5886 13.3682 90.2707 13.1456 89.8681 13.0395C89.4866 12.9335 89.0098 12.8805 88.4376 12.8805C87.8866 12.8805 87.4098 12.9335 87.0071 13.0395C86.6257 13.1456 86.3078 13.3682 86.0535 13.7075C85.7992 14.0255 85.6084 14.5239 85.4813 15.2024C85.3753 15.8597 85.3223 16.7503 85.3223 17.8741C85.3223 18.9768 85.3753 19.8673 85.4813 20.5459C85.6084 21.2244 85.7992 21.7333 86.0535 22.0726C86.3078 22.3907 86.6257 22.6027 87.0071 22.7087C87.4098 22.8147 87.8866 22.8677 88.4376 22.8677Z" fill="#131313"/>
<path d="M105.006 26.6527C103.67 26.6527 102.547 26.3771 101.636 25.8258C100.725 25.2532 100.036 24.3414 99.5697 23.0904C99.1247 21.8181 98.9022 20.1536 98.9022 18.0968C98.9022 15.9763 99.0929 14.2588 99.4744 12.9441C99.877 11.6295 100.545 10.6647 101.477 10.0497C102.409 9.43481 103.692 9.12735 105.323 9.12735C106.108 9.12735 106.881 9.21217 107.644 9.3818C108.407 9.53023 109.085 9.71047 109.678 9.92251V2.19354H114.415V26.4619H110.441L109.678 24.8397C109.318 25.179 108.873 25.4865 108.343 25.7621C107.835 26.0378 107.294 26.2604 106.722 26.4301C106.15 26.5785 105.578 26.6527 105.006 26.6527ZM106.659 22.8677C107.294 22.8677 107.867 22.7617 108.375 22.5497C108.905 22.3376 109.339 22.1256 109.678 21.9136V13.3258C109.255 13.1774 108.81 13.0289 108.343 12.8805C107.877 12.7321 107.379 12.6579 106.849 12.6579C106.065 12.6579 105.429 12.7957 104.942 13.0714C104.476 13.347 104.137 13.8665 103.925 14.6299C103.713 15.372 103.607 16.4534 103.607 17.8741C103.607 19.1888 103.702 20.2172 103.893 20.9594C104.105 21.6803 104.433 22.1786 104.878 22.4543C105.323 22.7299 105.917 22.8677 106.659 22.8677Z" fill="#131313"/>
<path d="M123.284 34L125.128 26.4619C124.174 26.4619 123.337 26.2816 122.617 25.9212C121.896 25.5607 121.292 25.0518 120.805 24.3945C120.338 23.7159 119.978 22.8784 119.724 21.8817L116.513 9.3818H121.409L124.111 20.9276C124.217 21.3304 124.354 21.6485 124.524 21.8817C124.693 22.115 124.874 22.2846 125.064 22.3906C125.255 22.4755 125.425 22.5391 125.573 22.5815C125.742 22.6027 125.87 22.6133 125.954 22.6133L129.038 9.3818H133.806L128.72 30.8512L127.194 34H123.284Z" fill="#131313"/>
<path d="M138.443 26.3226V12.6421H136V10.132L138.443 9.50442V7.55904C138.443 6.2412 138.61 5.19529 138.944 4.42132C139.299 3.64735 139.842 3.08256 140.572 2.72695C141.303 2.37135 142.243 2.19354 143.391 2.19354C144.226 2.19354 144.978 2.24584 145.646 2.35043C146.335 2.4341 146.898 2.54915 147.337 2.69558V5.48814C146.982 5.46723 146.554 5.44631 146.053 5.42539C145.573 5.38355 145.113 5.36264 144.675 5.36264C144.069 5.36264 143.589 5.46723 143.234 5.67641C142.9 5.88559 142.66 6.1889 142.514 6.58635C142.389 6.98379 142.326 7.48583 142.326 8.09245V9.50442H151.659V12.6421H142.326V26.3226H138.443ZM149.78 26.3226V9.50442H153.663V26.3226H149.78ZM150.281 6.83736C149.884 6.83736 149.686 6.6491 149.686 6.27257V3.41725C149.686 2.99889 149.884 2.78971 150.281 2.78971H153.224C153.412 2.78971 153.548 2.85246 153.632 2.97797C153.736 3.10348 153.788 3.24991 153.788 3.41725V6.27257C153.788 6.6491 153.6 6.83736 153.224 6.83736H150.281Z" fill="#F70544"/>
<path d="M163.735 26.3226C162.524 26.3226 161.532 26.1448 160.759 25.7892C159.987 25.4126 159.423 24.7956 159.068 23.9379C158.734 23.0803 158.578 21.9507 158.599 20.5492L158.724 12.6421H156.093V10.132L158.849 9.50442L159.413 4.79785H162.451V9.50442H166.71V12.6421H162.451V20.5178C162.451 21.0617 162.503 21.5114 162.607 21.867C162.712 22.2017 162.858 22.4736 163.046 22.6828C163.254 22.8711 163.474 23.0071 163.703 23.0907C163.933 23.1744 164.173 23.2267 164.424 23.2476L166.522 23.4673V26.3226H163.735Z" fill="#F70544"/>
<path fill-rule="evenodd" clip-rule="evenodd" d="M4.38709 0H3.29036V5.48392C3.29036 6.08965 2.79932 6.5807 2.19359 6.5807C1.58786 6.5807 1.09682 6.08965 1.09682 5.48392V0H1C0.447715 0 0 0.447716 0 1V10.1613C0 11.5388 0.928353 12.6994 2.19352 13.0516V29.0644C2.19352 29.973 2.93008 30.7096 3.83868 30.7096C4.74728 30.7096 5.48384 29.973 5.48384 29.0644V13.0517C6.74904 12.6994 7.67742 11.5388 7.67742 10.1613V1C7.67742 0.447715 7.2297 0 6.67742 0H6.58064V5.48392C6.58064 6.08965 6.0896 6.5807 5.48387 6.5807C4.87814 6.5807 4.38709 6.08965 4.38709 5.48392V0ZM49.9032 0C48.3889 0 47.1613 1.22761 47.1613 2.74194V15.9032C47.1613 17.2298 48.1033 18.3363 49.3548 18.5903V29.0645C49.3548 29.9731 50.0914 30.7096 51 30.7096C51.9086 30.7096 52.6451 29.9731 52.6451 29.0645L52.6451 15.9032L52.6451 7.12899L52.6451 7.12541V2.74194C52.6451 1.22761 51.4175 0 49.9032 0ZM9.87108 9.32258C9.87108 9.63392 9.88634 9.9417 9.91615 10.2452C9.88639 10.4762 9.87105 10.7169 9.87105 10.9676C9.87105 11.7186 9.9237 12.4498 10.0232 13.1612H20.9187L23.2059 8.5868C23.4869 8.02479 24.0635 7.67193 24.6918 7.67744C25.3201 7.68295 25.8905 8.04587 26.1616 8.61272L30.6832 18.067L32.5062 14.117C32.7751 13.5344 33.3583 13.1612 34 13.1612H44.8448C44.9254 12.4535 44.9678 11.7225 44.9678 10.9676C44.9678 10.7165 44.9524 10.4754 44.9226 10.244C44.9523 9.94087 44.9675 9.63351 44.9675 9.32258C44.9675 4.17386 40.7937 0 35.645 0C32.084 0 28.9893 1.99655 27.4193 4.93129C25.8493 1.99654 22.7546 0 19.1937 0C14.0449 0 9.87108 4.17386 9.87108 9.32258ZM27.4194 31.8066C27.4194 31.8066 14.5376 26.5732 10.8478 16.4516H21.9355C22.5586 16.4516 23.1283 16.0995 23.4069 15.5421L24.6446 13.0669L29.2255 22.6453C29.5006 23.2205 30.0833 23.5849 30.7209 23.5806C31.3585 23.5762 31.9362 23.2038 32.2034 22.6249L35.0526 16.4516H44.1595C40.7126 27.6523 27.4194 31.8066 27.4194 31.8066Z" fill="#F70544"/>
</svg>

<svg width="167" height="34" fill="none" xmlns="http://www.w3.org/2000/svg"><path d="M61.419 26.462V2.925h9.25c2.332 0 4.027.54 5.087 1.622 1.08 1.06 1.62 2.577 1.62 4.549 0 .932-.137 1.76-.413 2.48-.254.7-.625 1.283-1.112 1.75a3.975 3.975 0 01-1.748.922c.508.127.996.329 1.462.604.487.276.922.647 1.303 1.114.403.466.71 1.039.922 1.717.233.658.35 1.421.35 2.29 0 1.59-.276 2.863-.827 3.817-.53.954-1.324 1.643-2.384 2.068-1.038.402-2.32.604-3.846.604h-9.664zm4.705-4.23h4.832c.55 0 1.027-.106 1.43-.318.403-.213.71-.541.922-.986.233-.446.35-1.04.35-1.782 0-.614-.117-1.134-.35-1.558a2.511 2.511 0 00-.954-.986c-.403-.233-.869-.35-1.398-.35h-4.832v5.98zm0-9.606H70.7c.678 0 1.208-.244 1.59-.731.402-.51.604-1.167.604-1.972.02-1.04-.191-1.76-.636-2.163-.445-.403-.986-.605-1.621-.605h-4.514v5.471zM88.438 26.62c-1.4 0-2.597-.137-3.593-.413-.995-.296-1.811-.784-2.447-1.463-.615-.678-1.07-1.58-1.367-2.703-.276-1.124-.413-2.513-.413-4.167 0-1.739.137-3.17.413-4.294.297-1.145.752-2.035 1.367-2.671.636-.658 1.452-1.114 2.448-1.368 1.017-.276 2.214-.414 3.592-.414 1.42 0 2.627.138 3.623.414.996.275 1.802.742 2.416 1.4.636.635 1.092 1.526 1.367 2.671.297 1.124.445 2.545.445 4.262 0 1.697-.137 3.117-.413 4.262-.275 1.124-.72 2.015-1.335 2.672s-1.43 1.124-2.448 1.4c-.996.275-2.214.413-3.655.413zm0-3.752c.572 0 1.049-.053 1.43-.16a1.67 1.67 0 00.954-.635c.254-.34.445-.849.572-1.527.127-.679.19-1.57.19-2.672 0-1.124-.063-2.014-.19-2.672-.127-.678-.318-1.177-.572-1.495a1.622 1.622 0 00-.954-.668c-.381-.105-.858-.159-1.43-.159-.551 0-1.028.053-1.43.16-.382.106-.7.328-.954.668-.255.317-.446.816-.573 1.494-.106.658-.159 1.548-.159 2.672 0 1.103.053 1.993.16 2.672.126.678.317 1.187.572 1.527.254.318.572.53.953.636.403.106.88.159 1.43.159zm16.568 3.785c-1.336 0-2.459-.276-3.37-.827-.911-.573-1.6-1.485-2.066-2.736-.445-1.272-.668-2.936-.668-4.993 0-2.12.19-3.838.572-5.153.403-1.315 1.071-2.28 2.003-2.894.932-.615 2.215-.923 3.846-.923.785 0 1.558.085 2.321.255.763.148 1.441.328 2.034.54V2.195h4.737v24.268h-3.974l-.763-1.622c-.36.339-.805.646-1.335.922a8.394 8.394 0 01-1.621.668 6.809 6.809 0 01-1.716.223zm1.653-3.785c.635 0 1.208-.106 1.716-.318.53-.212.964-.424 1.303-.636v-8.588a47.397 47.397 0 00-1.335-.446 4.896 4.896 0 00-1.494-.222c-.784 0-1.42.138-1.907.413-.466.276-.805.796-1.017 1.559-.212.742-.318 1.823-.318 3.244 0 1.315.095 2.343.286 3.085.212.721.54 1.22.985 1.495.445.276 1.039.414 1.781.414zM123.284 34l1.844-7.538c-.954 0-1.791-.18-2.511-.54a5.025 5.025 0 01-1.812-1.527c-.467-.68-.827-1.517-1.081-2.513l-3.211-12.5h4.896l2.702 11.546c.106.402.243.72.413.954.169.233.35.403.54.509.191.085.361.148.509.19.169.022.297.032.381.032l3.084-13.231h4.768l-5.086 21.47L127.194 34h-3.91z" fill="#131313"/><path d="M138.443 26.323v-13.68H136v-2.511l2.443-.628V7.56c0-1.318.167-2.364.501-3.138.355-.774.898-1.338 1.628-1.694.731-.356 1.671-.533 2.819-.533.835 0 1.587.052 2.255.156.689.084 1.252.2 1.691.346v2.792c-.355-.02-.783-.042-1.284-.063a15.9 15.9 0 00-1.378-.062c-.606 0-1.086.104-1.441.313-.334.21-.574.513-.72.91-.125.398-.188.9-.188 1.506v1.412h9.333v3.138h-9.333v13.68h-3.883zm11.337 0V9.504h3.883v16.819h-3.883zm.501-19.486c-.397 0-.595-.188-.595-.564V3.417c0-.418.198-.627.595-.627h2.943c.188 0 .324.062.408.188a.668.668 0 01.156.44v2.855c0 .376-.188.564-.564.564h-2.943zm13.454 19.486c-1.211 0-2.203-.178-2.976-.534-.772-.376-1.336-.993-1.691-1.851-.334-.858-.49-1.987-.469-3.389l.125-7.907h-2.631v-2.51l2.756-.628.564-4.706h3.038v4.706h4.259v3.138h-4.259v7.876c0 .544.052.993.156 1.349.105.335.251.607.439.816.208.188.428.324.657.408.23.083.47.136.721.157l2.098.22v2.855h-2.787z" fill="#F70544"/><path fill-rule="evenodd" clip-rule="evenodd" d="M4.387 0H3.29v5.484a1.097 1.097 0 11-2.193 0V0H1a1 1 0 00-1 1v9.161a3 3 0 002.194 2.89v16.013a1.645 1.645 0 103.29 0V13.052a3.001 3.001 0 002.193-2.89V1a1 1 0 00-1-1h-.096v5.484a1.097 1.097 0 11-2.194 0V0zm45.516 0a2.742 2.742 0 00-2.742 2.742v13.161c0 1.327.942 2.433 2.194 2.687v10.474a1.645 1.645 0 003.29 0V2.742A2.742 2.742 0 0049.903 0zM9.871 9.323c0 .31.015.619.045.922a5.65 5.65 0 00-.045.723c0 .75.053 1.482.152 2.193H20.92l2.287-4.574a1.645 1.645 0 012.956.026l4.521 9.454 1.823-3.95A1.645 1.645 0 0134 13.161h10.845c.08-.707.123-1.438.123-2.193 0-.252-.016-.493-.045-.724A9.323 9.323 0 0027.42 4.931 9.323 9.323 0 009.871 9.322zM27.42 31.807s-12.881-5.234-16.571-15.355h11.088c.623 0 1.192-.353 1.47-.91l1.239-2.475 4.58 9.578a1.645 1.645 0 002.978-.02l2.85-6.173h9.107c-3.447 11.2-16.74 15.355-16.74 15.355z" fill="#F70544"/></svg>
